src/images/svg/treasure.svg

<?xml version="1.0" encoding="UTF-8"?>
<!-- Uploaded to: SVG Repo, www.svgrepo.com, Generator: SVG Repo Mixer Tools -->
<svg width="800px" height="800px" viewBox="-0.5 0 46 46" version="1.1" xmlns="http://www.w3.org/2000/svg"
    xmlns:xlink="http://www.w3.org/1999/xlink">

    <title>011-Treasure</title>
    <desc>Created with Sketch.</desc>
    <defs>

    </defs>
    <g id="Page-1" stroke="none" stroke-width="1" fill="none" fill-rule="evenodd">
        <g id="Artboard" transform="translate(-628.000000, -741.000000)">
            <g id="011-Treasure" transform="translate(628.000000, 741.000000)">
                <path
                    d="M17.763,2.1341 C13.851,1.7411 11.254,2.6021 8.615,4.6301 C-0.567,11.6841 3.862,32.9021 4.709,34.7501 C5.965,37.4911 23.742,45.1861 26.888,45.4941 C30.035,45.8021 42.043,14.3411 42.043,14.3411 C42.043,14.3411 25.426,2.9041 17.763,2.1341"
                    id="Fill-1362" fill="#9A5F5F">

                </path>
                <path
                    d="M36.9991,13.6965 C22.8071,19.5395 25.8871,44.9935 26.8881,45.4945 C27.8891,45.9945 40.5191,39.3895 41.0191,38.7345 C41.5201,38.0805 50.5011,8.1375 36.9991,13.6965"
                    id="Fill-1364" fill="#C27D78">

                </path>
                <path
                    d="M36.4779,13.9304 C39.3339,12.5744 41.2079,12.8724 42.4199,14.0574 L42.4259,14.0544 C42.4259,14.0544 40.5509,10.8614 37.1229,10.8614 C33.9619,10.8614 24.5019,14.2644 22.9999,31.7084 C22.9999,31.7084 14.2849,27.5884 11.2989,26.0094 C8.3129,24.4294 2.5969,20.9154 2.5969,20.9154 C2.5969,20.9154 1.3969,1.3254 17.7629,2.1344 C17.7629,2.1344 15.3659,0.6354 13.0059,0.7094 C-1.5401,1.1624 0.2419,22.8904 0.2419,22.8904 C0.2419,22.8904 5.2089,27.1254 11.7939,30.3604 C18.9999,33.9004 27.2749,36.6074 27.2749,36.6074 C26.1189,35.9144 26.4149,18.7094 36.4779,13.9304"
                    id="Fill-1366" fill="#F1A969">

                </path>
                <path
                    d="M2.5969,20.9151 L4.2849,20.3101 C4.2849,20.3101 2.5969,5.9081 17.7629,2.1341 C1.3969,1.3251 2.5969,20.9151 2.5969,20.9151"
                    id="Fill-1368" fill="#F7BF6D">

                </path>
                <path
                    d="M23.0001,31.7083 L23.2001,29.8173 L4.2851,20.3103 L2.5971,20.9153 C2.5971,20.9153 8.3131,24.4293 11.2991,26.0093 C14.2841,27.5883 23.0001,31.7083 23.0001,31.7083"
                    id="Fill-1370" fill="#FBDF89">

                </path>
                <path
                    d="M39.9739,26.1145 C33.9079,29.6415 28.8179,31.3915 28.8179,31.3915 C28.8179,31.3915 29.7369,32.2675 30.4909,32.2695 C32.6249,32.2735 41.1999,27.3495 41.5329,26.4965 L39.9739,26.1145 Z"
                    id="Fill-1372" fill="#F7BF6D">

                </path>
                <path
                    d="M40.4423,17.3908 C40.4423,17.3908 41.2823,21.4118 39.9743,26.1148 L41.5333,26.4968 C41.5333,26.4968 43.4283,19.1618 40.4423,17.3908"
                    id="Fill-1374" fill="#F1A969">

                </path>
                <path
                    d="M41.5328,26.4967 C41.1728,27.1137 31.2008,32.8007 30.2568,32.2337 C29.3568,31.6937 31.1108,20.6817 37.0028,17.6777 C43.7698,14.2277 41.8928,25.8797 41.5328,26.4967 M36.4778,13.9307 C26.4148,18.7087 25.9268,35.8667 27.0818,36.5607 C28.2938,37.2867 43.1008,29.3977 43.5638,28.6067 C44.0258,27.8147 47.4528,8.7187 36.4778,13.9307"
                    id="Fill-1376" fill="#FBDF89">

                </path>
                <path
                    d="M16.4307,32.4809 L15.8357,38.1959 C15.8357,38.1959 17.1377,37.8119 17.5757,37.3119 C18.0127,36.8109 17.8537,33.0809 17.8537,33.0809 L16.4307,32.4809 Z"
                    id="Fill-1378" fill="#FBDF89">

                </path>
                <path
                    d="M8.7737,28.7536 C8.7737,28.7536 8.6367,34.1346 9.1757,34.9816 C9.7147,35.8286 15.2967,38.5806 15.8357,38.1956 C16.3747,37.8106 16.4307,32.4806 16.4307,32.4806 L8.7737,28.7536 Z"
                    id="Fill-1380" fill="#F1A969">

                </path>
                <path
                    d="M13.152,35.6534 L12.949,34.0314 C13.12,33.9994 13.283,33.9384 13.41,33.8114 C13.788,33.4334 13.737,32.7674 13.294,32.3244 C12.851,31.8824 12.186,31.8304 11.807,32.2084 C11.428,32.5874 11.48,33.2534 11.923,33.6954 C11.949,33.7214 11.981,33.7324 12.008,33.7564 L11.526,34.8184 L13.152,35.6534 Z"
                    id="Fill-1382" fill="#4E433A">

                </path>
                <polygon id="Fill-1384" fill="#7F5253" points="4.59 15.3477 4.392 16.5667 21.423 24.3187">

                </polygon>
                <polygon id="Fill-1386" fill="#7F5253" points="6.5085 10.0889 5.9615 11.1389 23.2005 18.9849">

                </polygon>
                <polygon id="Fill-1388" fill="#7F5253" points="10.2982 5.6616 9.3452 6.4856 26.4702 14.2796">

                </polygon>
                <polygon id="Fill-1390" fill="#7F5253" points="14.963 3.0182 13.758 3.5342 30.585 11.3432">

                </polygon>
            </g>
        </g>
    </g>
</svg>

<svg width="800" height="800" viewBox="-.5 0 46 46" xmlns="http://www.w3.org/2000/svg"><g fill="none" fill-rule="evenodd"><path d="M17.763 2.134c-3.912-.393-6.509.468-9.148 2.496-9.182 7.054-4.753 28.272-3.906 30.12 1.256 2.741 19.033 10.436 22.179 10.744 3.147.308 15.155-31.153 15.155-31.153S25.426 2.904 17.763 2.134" fill="#9A5F5F"/><path d="M37 13.697C22.806 19.54 25.886 44.992 26.887 45.495c1.001.5 13.631-6.105 14.131-6.76.501-.654 9.482-30.598-4.02-25.038" fill="#C27D78"/><path d="M36.478 13.93c2.856-1.356 4.73-1.058 5.942.127l.006-.003s-1.875-3.193-5.303-3.193c-3.161 0-12.621 3.403-14.123 20.847 0 0-8.715-4.12-11.701-5.699-2.986-1.58-8.702-5.094-8.702-5.094s-1.2-19.59 15.166-18.78c0 0-2.397-1.5-4.757-1.426C-1.54 1.162.242 22.89.242 22.89s4.967 4.235 11.552 7.47c7.206 3.54 15.48 6.247 15.48 6.247-1.155-.693-.86-17.898 9.204-22.677" fill="#F1A969"/><path d="M2.597 20.915l1.688-.605S2.597 5.908 17.763 2.134C1.397 1.325 2.597 20.915 2.597 20.915" fill="#F7BF6D"/><path d="M23 31.708l.2-1.89L4.285 20.31l-1.688.605S8.313 24.43 11.3 26.01C14.284 27.59 23 31.71 23 31.71" fill="#FBDF89"/><path d="M39.974 26.114c-6.066 3.527-11.156 5.277-11.156 5.277s.919.877 1.673.879c2.134.003 10.709-4.92 11.042-5.774l-1.56-.381z" fill="#F7BF6D"/><path d="M40.442 17.39s.84 4.022-.468 8.725l1.56.382s1.894-7.335-1.092-9.106" fill="#F1A969"/><path d="M41.533 26.497c-.36.617-10.332 6.304-11.276 5.737-.9-.54.854-11.552 6.746-14.556 6.767-3.45 4.89 8.202 4.53 8.819M36.478 13.93c-10.063 4.778-10.551 21.936-9.396 22.63 1.212.726 16.019-7.163 16.482-7.954.462-.792 3.889-19.888-7.086-14.676M16.43 32.48l-.594 5.716s1.302-.384 1.74-.884c.437-.501.278-4.231.278-4.231l-1.423-.6z" fill="#FBDF89"/><path d="M8.774 28.754s-.137 5.38.402 6.228c.539.847 6.12 3.599 6.66 3.214.539-.385.595-5.715.595-5.715l-7.657-3.727z" fill="#F1A969"/><path d="M13.152 35.653l-.203-1.622a.85.85 0 00.461-.22c.378-.378.327-1.044-.116-1.487-.443-.442-1.108-.494-1.487-.116-.379.38-.327 1.045.116 1.487.026.026.058.037.085.061l-.482 1.062 1.626.835z" fill="#4E433A"/><path fill="#7F5253" d="M4.59 15.348l-.198 1.219 17.031 7.752zM6.508 10.089l-.546 1.05 17.239 7.846zM10.298 5.662l-.953.824L26.47 14.28zM14.963 3.018l-1.205.516 16.827 7.809z"/></g></svg>
